X: 30
T:The Fox-Hunter
M:4/4
L:1/8
Q:160     %Tempo
C:Traditional
K:G
d2 (3BAG dGBG |dGBG AGEG |d2 (3BAG dGBG |AcBG AGEG |
d2 (3BAG dGBG |dGBG AGEG |d2 (3BAG dGBG |AcBG AGEG |:
D3 B BAGE |D2 BG AGEG |D3 B BA G2 |AcBG AGEG ::
gedB G2 Bd |gdBd eA A2 |gedB G2 cB |ABcd eA A2 :|
dggf g3 e |dg g2 egdB |dggf g3 d |egdB AGAB |
dggf g3 e |dg g2 egdB |dggf g3 d |egdB AGAB |:
G2 BG dGBG |GB B2 AGAB |G2 BG dGBG |egdB AGAB |
G2 BG dGBG |GB B2 AGAB |G2 BG dGBd |egdB AGAB ||
